app/client/src/assets/icons/blueprintjs/16px/th-disconnect.svg

<?xml version="1.0" encoding="UTF-8"?>
<svg width="16px" height="16px" viewBox="0 0 16 16" version="1.1" xmlns="http://www.w3.org/2000/svg" xmlns:xlink="http://www.w3.org/1999/xlink">
    <!-- Generator: Sketch 54.1 (76490) - https://sketchapp.com -->
    <title>th-disconnect</title>
    <desc>Created with Sketch.</desc>
    <g id="th-disconnect" stroke="none" stroke-width="1" fill="none" fill-rule="evenodd">
        <g fill="#000000" fill-rule="nonzero" id="Combined-Shape">
            <path d="M12.0003797,1 L15,1 C15.6,1 16,1.5 16,2 L16,14 C16,14.6 15.6,15 15,15 L10.0304576,15 L10.3161719,13 L14,13 L14,11 L10.6018862,11 L10.7447433,10 L14,10 L14,8 L11.0304576,8 L11.1733148,7 L14,7 L14,5 L11.4590291,5 L11.9698485,1.42426407 C11.9902182,1.28167619 12.000204,1.13999978 12.0003797,1 Z M5.96954237,1 L5.39811379,5 L2,5 L2,7 L5.11239951,7 L4.96954237,8 L2,8 L2,10 L4.68382808,10 L4.54097094,11 L2,11 L2,13 L4.25525665,13 L4.03015152,14.5757359 C4.00978182,14.7183238 3.99979603,14.8600002 3.99962028,15 L1,15 C0.4,15 0,14.6 0,14 L0,2 C0,1.5 0.4,1 1,1 L5.96954237,1 Z M8.01005051,0.858578644 C8.08815536,0.311844635 8.59468735,-0.068054352 9.14142136,0.0100505063 C9.68815536,0.0881553647 10.0680544,0.594687348 9.98994949,1.14142136 L7.98994949,15.1414214 C7.91184464,15.6881554 7.40531265,16.0680544 6.85857864,15.9899495 C6.31184464,15.9118446 5.93194565,15.4053127 6.01005051,14.8585786 L8.01005051,0.858578644 Z"></path>
        </g>
    </g>
</svg>

<svg xmlns="http://www.w3.org/2000/svg" width="16" height="16"><path fill-rule="nonzero" d="M12 1h3c.6 0 1 .5 1 1v12c0 .6-.4 1-1 1h-4.97l.286-2H14v-2h-3.398l.143-1H14V8h-2.97l.143-1H14V5h-2.541l.51-3.576C11.99 1.282 12 1.14 12 1ZM5.97 1l-.572 4H2v2h3.112L4.97 8H2v2h2.684l-.143 1H2v2h2.255l-.225 1.576c-.02.142-.03.284-.03.424H1c-.6 0-1-.4-1-1V2c0-.5.4-1 1-1h4.97ZM8.01.859a1 1 0 1 1 1.98.282l-2 14a1 1 0 1 1-1.98-.282l2-14Z"/></svg>
